svg/u1f9ab.svg

<svg viewBox="0 0 128 128" xmlns="http://www.w3.org/2000/svg">
  <g>
    <path d="M77.52,83.78c4.93,2.51,14.08,4.86,18.94,4.15c12.6-1.85,21.69-9.13,27.2-19.22 c2.33-4.27,2.53-12.92-1.21-13.86c-4.74-1.19-10.37-0.26-19.11,3.87c-8.89,4.2-11.03,10.84-21.5,5.73" fill="#694D42"/>
    <path d="M79.88,75.09c1.83,1.22,2.09,1.88,3.6,3.48c2.97,3.16,9.99,3.33,11.35,3.35 c8.09,0.11,12-1.85,17.22-5.3s10.13-10.99,11.01-14.73c0.61-2.58,0.92-4.54,0.8-6.13c-0.39-0.44-0.85-0.77-1.4-0.91 c-4.74-1.19-10.37-0.26-19.11,3.87c-8.89,4.2-11.03,10.84-21.5,5.73l-2.28,10.17L79.88,75.09z" fill="#B3937C" opacity="0.44"/>
    <path d="M123.47,59.99c0.18-0.95,0.31-1.8,0.37-2.57l-5.37-2.35l0.31-0.7c-1.85-0.03-3.89,0.24-6.19,0.83 l2.58,1.14l-2.66,6.03l-6.03-2.66l1.29-2.91c-1.07,0.42-5.12,2.14-6.83,3.2l2.25,0.99l-2.66,6.03l-6-2.72 c-1.13,0.71-2.25,1.29-3.46,1.64l-6.05,13.68c0.73,0.37,1.53,0.66,2.34,0.89l2.46-5.56l6.03,2.66c0,0-1.25,2.79-1.91,4.28 c0.39,0.02,2.11,0.03,2.69,0.01l1.51-3.28l5.33,2.31c1.6-0.46,3.05-1.08,4.49-1.83l2.18-5.12l3.42,1.53 c0.69-0.56,1.37-1.18,2.02-1.84l-4.43-1.97l2.66-6.03l6.08,2.69c0.49-0.73,0.93-1.45,1.32-2.15l-6.39-2.83l2.66-6.03L123.47,59.99z M96.84,75.33l-6.03-2.66l2.66-6.03l6.03,2.66L96.84,75.33z M105.16,79.01l-6.03-2.66l2.66-6.03l6.03,2.66L105.16,79.01z M108.83,70.69l-6.03-2.66l2.66-6.03l6.03,2.66L108.83,70.69z" fill="#694D42"/>
    <path d="M17.36,8.23c-1.03-0.16-2.06-0.28-3.1-0.34c-0.43-0.03-0.9-0.04-1.27,0.18 c-0.31,0.18-0.51,0.5-0.67,0.82c-0.9,1.74-1.01,3.87-0.29,5.69c0.18,0.45,0.53,0.95,1,0.87c0.19-0.03,0.34-0.15,0.49-0.27 c1.48-1.16,2.85-2.45,4.08-3.86c0.21-0.24,0.41-0.63,0.16-0.84" fill="#825B4E"/>
    <path d="M57.41,102.05c-8.65,4.19-14.38,9.08-20.38,15.08c-0.45,0.45-2.33,2.5-1.17,3.12 c1.16,0.62,4.03-1.48,4.85-0.93c0.98,0.65,0.26,1.8,1.29,2.54c1.03,0.74,3.8-1.42,5.2-0.79c1.4,0.63,0.78,1.71,1.6,2.67 c1.07,1.26,3.45,0.09,4.09-0.42c3.77-2.98,13.16-11.93,14.82-13.86c2.2-2.56,3.6-6,1.64-8.28" fill="#694D42"/>
    <path d="M28.26,99.21c-5.13,1.63-10.08,3.8-14.73,6.46c-0.97,0.55-1.93,1.14-2.73,1.91 c-0.35,0.33-0.73,0.92-0.38,1.25c0.8,0.73,2.33-0.46,3.49,0.45c0.4,0.32,0.17,1.7,0.47,2.12c0.32,0.44,0.93,0.6,1.48,0.56 s1.07-0.25,1.6-0.41c1.17-0.35,2.37-0.57,3.14,0.35c0.48,0.58,0.45,1.12,0.76,1.74c0.21,0.43,0.56,0.77,1.43,0.76 c1.32-0.01,2.53-0.61,3.62-1.34c4.92-3.3,9.55-6.98,14.18-10.65" fill="#694D42"/>
    <path d="M47.3,12.38c3.46,0.97,4.32-0.02,6.92,0.18c3.33,0.25,2.93,3.4,2.44,5.14 c-0.63,2.23-1.87,4.04-3.64,5.53c-0.3,0.25-0.64,0.51-1.04,0.54c-0.47,0.04-0.9-0.25-1.26-0.55c-2.36-1.93-3.86-4.88-4.03-7.92" fill="#825B4E"/>
    <path d="M12.16,41.12c0,0-6.13,0.71-8.28,7.29C0.73,58.03,9.1,63.61,9.1,63.61S6.8,83.32,18.81,94.12 s15.93,11.2,29.97,13.77s27.13-6.48,30.51-10.12s8.64-11.23,9.58-20.67c0.94-9.43-7.42-25.94-14.98-34.56S50.8,20.56,50.8,20.56 L28.4,41.44L12.16,41.12z" fill="#B38A6D"/>
    <path d="M48.27,13.23c-5.59-7.84-11.8-9.39-18.63-9.39c-7.37,0-14.36,5.41-17.58,9.69 c-2.6,3.47-5.84,9.11-6.3,15.6c-0.36,5.1,1.26,9.87,6.3,13.4c5.04,3.53,25.07,7.74,33.29,2.09c7.2-4.95,9.64-11.6,8.92-17.18 C53.76,23.43,52.6,19.3,48.27,13.23z" fill="#B38A6D"/>
    <ellipse cx="36.34" cy="17.7" fill="#212121" rx="2.43" ry="3.15" transform="matrix(0.9523 -0.3051 0.3051 0.9523 -3.6671 11.9302)"/>
    <path d="M15.62,32.75c-0.52,3.64,1.09,9.12,2.44,9.04c1.12-0.07,1.38-2.29,1.38-2.29s0.96,2.84,2.72,2.66 c1.68-0.18,1.6-6.19,2.03-9.13l-5.7-2.33L15.62,32.75z" fill="#FFECB3"/>
    <path d="M11.84,15.91c0.33-1.02,1.26-2.35,2.77-2.31c1.61,0.05,1.33,2.36,0.78,3.58 c-0.56,1.22-1.85,2.4-3.06,1.64C11.5,18.3,11.61,16.63,11.84,15.91z" fill="#212121"/>
    <path d="M41.53,67.39c-12.8-4.32-13.34-17.07-17.28-20.07c-1.34-1.03-2.63-1.28-3.99-1.99 c-1.25-0.65-2.69-1.31-4-0.79c0.9,0.61,1.71,1.37,2.36,2.25c-1.3,0.13-3.23,0.29-3.87,1.11c-0.11,0.14,0.04,0.36,0.2,0.44 c0.16,0.08,2.3,0.47,3.15,1.33c-0.68,0.58-1.46,1.06-2.05,1.73c-0.34,0.38-0.03,0.62,0.11,0.66c0.92,0.25,1.95,0.1,2.81,0.52 c0.86,0.42,1.49,1.21,2.25,1.77c0.92,0.69,2.07,1.07,3.23,1.07c1.92,4.01,4.42,7.35,7.67,10.37c3,2.79,6.7,4.78,10.81,5.53 c12.93,2.36,18.67-10.8,18.67-10.8S52.41,71.06,41.53,67.39z" fill="#825B4E"/>
    <path d="M21.8,18.45c-0.5-0.66-1.45-0.75-2.06-0.2c-1.53,1.39-3.01,2.67-3.65,3.69 c-0.42,0.69-0.79,2.08,0.02,3.07c0.81,0.99,3.36,3.06,3.36,3.06s3.23-1.51,4.23-2.22c1.21-0.87,1.48-2.72,0.45-4.25 C23.74,20.99,22.6,19.51,21.8,18.45z" fill="#212121"/>
    <path d="M28.47,32.39c0.84-1.31-0.1-1.93-0.65-1.29c-0.62,0.71-2.26,1.84-4.51,1.05 c-1.25-0.44-2.09-0.84-2.57-2.27c-0.34-1.02-0.22-2.39-0.21-3.45c0-0.48-2.14-0.53-2.28-0.13c-0.29,0.82-0.27,1.67-0.3,2.53 c-0.03,0.95-0.16,2.08-0.97,2.58c-2.64,1.67-4.2-0.83-4.51-1.12c-0.13-0.12-0.43,0.65-0.17,1.48c1.24,4.01,5.67,3.28,6.94,1.36 C19.47,34.73,25.12,37.62,28.47,32.39z" fill="#212121"/>
    <path d="M7.91,62.65c0.17,0.15,0.39,0.38,0.55,0.51c0.42,0.35,1.04,0.32,1.43-0.07 c0.45-0.47,0.99-1.3,1.33-2.41c0.66-2.11,0.42-5.06-0.86-7.18l-1.2,1.22c0.92,2.92,0.56,5.41-0.37,6.97 C8.42,62.3,7.93,62.6,7.91,62.65z" fill="#825B4E"/>
    <path d="M39.09,42.94l-0.73,3.37c3.13-0.38,6.45-6.44,6.45-6.44l0.04,4.05c4-2.17,6.07-11.49,6.07-11.49 c0.36,4.52,0.76,14.58-12.76,16.33c-4.9,0.64-10.03-1.38-10.03-1.38S35.75,46.88,39.09,42.94z" fill="#825B4E"/>
    <path d="M6.93,47.01c1.7-2.66,4.7-3.49,7.14-3.11c0.11,0.02,0.41,0.13,0.49,0.2 c0.16,0.15,0.09,0.44-0.09,0.58c-0.17,0.14-0.41,0.17-0.62,0.23c-1.22,0.3-2.32,1.23-2.53,2.47c0.87-0.36,1.91-0.28,2.72,0.19 c0.22,0.13,0.46,0.39,0.33,0.62c-0.07,0.13-0.24,0.18-0.39,0.23c-1.06,0.34-1.78,1.45-1.95,2.55c0.57-0.12,1.16-0.25,1.74-0.15 c0.58,0.1,1.35,0.59,1.29,1.04c-0.07,0.48-1.37,0.16-1.96,1.19c-0.41,0.72-0.63,1.59-1.27,2.11c-0.59,0.48-1.44,0.58-2.17,0.36 c-0.73-0.21-1.36-0.7-1.86-1.27C6.09,52.3,5.72,49.29,6.93,47.01" fill="#825B4E"/>
  </g>
</svg>

<svg viewBox="0 0 128 128" xmlns="http://www.w3.org/2000/svg">
  <defs/>
  <path d="M77.52,83.78 C82.45,86.29 91.6,88.64 96.46,87.93 C109.06,86.08 118.15,78.8 123.66,68.71 C125.99,64.44 126.19,55.79 122.45,54.85 C117.71,53.66 112.08,54.59 103.34,58.72 C94.45,62.92 92.31,69.56 81.84,64.45" fill="#694D42"/>
  <path d="M79.88,75.09 C81.71,76.31 81.97,76.97 83.48,78.57 C86.45,81.73 93.47,81.9 94.83,81.92 C102.92,82.03 106.83,80.07 112.05,76.62 C117.27,73.17 122.18,65.63 123.06,61.89 C123.67,59.31 123.98,57.35 123.86,55.76 C123.47,55.32 123.01,54.99 122.46,54.85 C117.72,53.66 112.09,54.59 103.35,58.72 C94.46,62.92 92.32,69.56 81.85,64.45 L79.57,74.62 L79.88,75.09 Z" fill="#B3937C" opacity="0.44"/>
  <path d="M123.47,59.99 C123.65,59.04 123.78,58.19 123.84,57.42 L118.47,55.07 L118.78,54.37 C116.93,54.34 114.89,54.61 112.59,55.2 L115.17,56.34 L112.51,62.37 L106.48,59.71 L107.77,56.8 C106.7,57.22 102.65,58.94 100.94,60 L103.19,60.99 L100.53,67.02 L94.53,64.3 C93.4,65.01 92.28,65.59 91.07,65.94 L85.02,79.62 C85.75,79.99 86.55,80.28 87.36,80.51 L89.82,74.95 L95.85,77.61 C95.85,77.61 94.6,80.4 93.94,81.89 C94.33,81.91 96.05,81.92 96.63,81.9 L98.14,78.62 L103.47,80.93 C105.07,80.47 106.52,79.85 107.96,79.1 L110.14,73.98 L113.56,75.51 C114.25,74.95 114.93,74.33 115.58,73.67 L111.15,71.7 L113.81,65.67 L119.89,68.36 C120.38,67.63 120.82,66.91 121.21,66.21 L114.82,63.38 L117.48,57.35 L123.47,59.99 Z M96.84,75.33 L90.81,72.67 L93.47,66.64 L99.5,69.3 L96.84,75.33 Z M105.16,79.01 L99.13,76.35 L101.79,70.32 L107.82,72.98 L105.16,79.01 Z M108.83,70.69 L102.8,68.03 L105.46,62 L111.49,64.66 L108.83,70.69 Z" fill="#694D42"/>
  <path d="M17.36,8.23 C16.33,8.07 15.3,7.95 14.26,7.89 C13.83,7.86 13.36,7.85 12.99,8.07 C12.68,8.25 12.48,8.57 12.32,8.89 C11.42,10.63 11.31,12.76 12.03,14.58 C12.21,15.03 12.56,15.53 13.03,15.45 C13.22,15.42 13.37,15.3 13.52,15.18 C15,14.02 16.37,12.73 17.6,11.32 C17.81,11.08 18.01,10.69 17.76,10.48" fill="#825B4E"/>
  <path d="M57.41,102.05 C48.76,106.24 43.03,111.13 37.03,117.13 C36.58,117.58 34.7,119.63 35.86,120.25 C37.02,120.87 39.89,118.77 40.71,119.32 C41.69,119.97 40.97,121.12 42,121.86 C43.03,122.6 45.8,120.44 47.2,121.07 C48.6,121.7 47.98,122.78 48.8,123.74 C49.87,125 52.25,123.83 52.89,123.32 C56.66,120.34 66.05,111.39 67.71,109.46 C69.91,106.9 71.31,103.46 69.35,101.18" fill="#694D42"/>
  <path d="M28.26,99.21 C23.13,100.84 18.18,103.01 13.53,105.67 C12.56,106.22 11.6,106.81 10.8,107.58 C10.45,107.91 10.07,108.5 10.42,108.83 C11.22,109.56 12.75,108.37 13.91,109.28 C14.31,109.6 14.08,110.98 14.38,111.4 C14.7,111.84 15.31,112 15.86,111.96 C16.41,111.92 16.93,111.71 17.46,111.55 C18.63,111.2 19.83,110.98 20.6,111.9 C21.08,112.48 21.05,113.02 21.36,113.64 C21.57,114.07 21.92,114.41 22.79,114.4 C24.11,114.39 25.32,113.79 26.41,113.06 C31.33,109.76 35.96,106.08 40.59,102.41" fill="#694D42"/>
  <path d="M47.3,12.38 C50.76,13.35 51.62,12.36 54.22,12.56 C57.55,12.81 57.15,15.96 56.66,17.7 C56.03,19.93 54.79,21.74 53.02,23.23 C52.72,23.48 52.38,23.74 51.98,23.77 C51.51,23.81 51.08,23.52 50.72,23.22 C48.36,21.29 46.86,18.34 46.69,15.3" fill="#825B4E"/>
  <path d="M12.16,41.12 C12.16,41.12 6.03,41.83 3.88,48.41 C0.73,58.03 9.1,63.61 9.1,63.61 C9.1,63.61 6.8,83.32 18.81,94.12 C30.82,104.92 34.74,105.32 48.78,107.89 C62.82,110.46 75.91,101.41 79.29,97.77 C82.67,94.13 87.93,86.54 88.87,77.1 C89.81,67.67 81.45,51.16 73.89,42.54 C66.33,33.92 50.8,20.56 50.8,20.56 L28.4,41.44 L12.16,41.12 Z" fill="#B38A6D"/>
  <path d="M48.27,13.23 C42.68,5.39 36.47,3.84 29.64,3.84 C22.27,3.84 15.28,9.25 12.06,13.53 C9.46,17 6.22,22.64 5.76,29.13 C5.4,34.23 7.02,39 12.06,42.53 C17.1,46.06 37.13,50.27 45.35,44.62 C52.55,39.67 54.99,33.02 54.27,27.44 C53.76,23.43 52.6,19.3 48.27,13.23 Z" fill="#B38A6D"/>
  <path d="M38.654,16.957 C39.185,18.614 38.579,20.289 37.301,20.698 C36.023,21.108 34.556,20.097 34.026,18.44 C33.495,16.783 34.101,15.108 35.379,14.699 C36.657,14.289 38.123,15.3 38.654,16.957 Z" fill="#212121"/>
  <path d="M15.62,32.75 C15.1,36.39 16.71,41.87 18.06,41.79 C19.18,41.72 19.44,39.5 19.44,39.5 C19.44,39.5 20.4,42.34 22.16,42.16 C23.84,41.98 23.76,35.97 24.19,33.03 L18.49,30.7 L15.62,32.75 Z" fill="#FFECB3"/>
  <path d="M11.84,15.91 C12.17,14.89 13.1,13.56 14.61,13.6 C16.22,13.65 15.94,15.96 15.39,17.18 C14.83,18.4 13.54,19.58 12.33,18.82 C11.5,18.3 11.61,16.63 11.84,15.91 Z" fill="#212121"/>
  <path d="M41.53,67.39 C28.73,63.07 28.19,50.32 24.25,47.32 C22.91,46.29 21.62,46.04 20.26,45.33 C19.01,44.68 17.57,44.02 16.26,44.54 C17.16,45.15 17.97,45.91 18.62,46.79 C17.32,46.92 15.39,47.08 14.75,47.9 C14.64,48.04 14.79,48.26 14.95,48.34 C15.11,48.42 17.25,48.81 18.1,49.67 C17.42,50.25 16.64,50.73 16.05,51.4 C15.71,51.78 16.02,52.02 16.16,52.06 C17.08,52.31 18.11,52.16 18.97,52.58 C19.83,53 20.46,53.79 21.22,54.35 C22.14,55.04 23.29,55.42 24.45,55.42 C26.37,59.43 28.87,62.77 32.12,65.79 C35.12,68.58 38.82,70.57 42.93,71.32 C55.86,73.68 61.6,60.52 61.6,60.52 C61.6,60.52 52.41,71.06 41.53,67.39 Z" fill="#825B4E"/>
  <path d="M21.8,18.45 C21.3,17.79 20.35,17.7 19.74,18.25 C18.21,19.64 16.73,20.92 16.09,21.94 C15.67,22.63 15.3,24.02 16.11,25.01 C16.92,26 19.47,28.07 19.47,28.07 C19.47,28.07 22.7,26.56 23.7,25.85 C24.91,24.98 25.18,23.13 24.15,21.6 C23.74,20.99 22.6,19.51 21.8,18.45 Z" fill="#212121"/>
  <path d="M28.47,32.39 C29.31,31.08 28.37,30.46 27.82,31.1 C27.2,31.81 25.56,32.94 23.31,32.15 C22.06,31.71 21.22,31.31 20.74,29.88 C20.4,28.86 20.52,27.49 20.53,26.43 C20.53,25.95 18.39,25.9 18.25,26.3 C17.96,27.12 17.98,27.97 17.95,28.83 C17.92,29.78 17.79,30.91 16.98,31.41 C14.34,33.08 12.78,30.58 12.47,30.29 C12.34,30.17 12.04,30.94 12.3,31.77 C13.54,35.78 17.97,35.05 19.24,33.13 C19.47,34.73 25.12,37.62 28.47,32.39 Z" fill="#212121"/>
  <path d="M7.91,62.65 C8.08,62.8 8.3,63.03 8.46,63.16 C8.88,63.51 9.5,63.48 9.89,63.09 C10.34,62.62 10.88,61.79 11.22,60.68 C11.88,58.57 11.64,55.62 10.36,53.5 L9.16,54.72 C10.08,57.64 9.72,60.13 8.79,61.69 C8.42,62.3 7.93,62.6 7.91,62.65 Z" fill="#825B4E"/>
  <path d="M39.09,42.94 L38.36,46.31 C41.49,45.93 44.81,39.87 44.81,39.87 L44.85,43.92 C48.85,41.75 50.92,32.43 50.92,32.43 C51.28,36.95 51.68,47.01 38.16,48.76 C33.26,49.4 28.13,47.38 28.13,47.38 C28.13,47.38 35.75,46.88 39.09,42.94 Z" fill="#825B4E"/>
  <path d="M6.93,47.01 C8.63,44.35 11.63,43.52 14.07,43.9 C14.18,43.92 14.48,44.03 14.56,44.1 C14.72,44.25 14.65,44.54 14.47,44.68 C14.3,44.82 14.06,44.85 13.85,44.91 C12.63,45.21 11.53,46.14 11.32,47.38 C12.19,47.02 13.23,47.1 14.04,47.57 C14.26,47.7 14.5,47.96 14.37,48.19 C14.3,48.32 14.13,48.37 13.98,48.42 C12.92,48.76 12.2,49.87 12.03,50.97 C12.6,50.85 13.19,50.72 13.77,50.82 C14.35,50.92 15.12,51.41 15.06,51.86 C14.99,52.34 13.69,52.02 13.1,53.05 C12.69,53.77 12.47,54.64 11.83,55.16 C11.24,55.64 10.39,55.74 9.66,55.52 C8.93,55.31 8.3,54.82 7.8,54.25 C6.09,52.3 5.72,49.29 6.93,47.01" fill="#825B4E"/>
</svg>
